app/img/step-3/var-1.svg

<svg width="90" height="90" viewBox="0 0 90 90" fill="none" xmlns="http://www.w3.org/2000/svg">
<g clip-path="url(#clip0)">
<path d="M90 55.9401V10.2156C90 7.20918 87.5628 4.77197 84.5564 4.77197H5.44359C2.43721 4.77197 0 7.20918 0 10.2156V55.9401L45 57.5731L90 55.9401Z" fill="#BED8FB"/>
<path d="M0 55.9402V59.2064L45 60.8394L90 59.2064V55.9402H0Z" fill="#A3CAF7"/>
<path d="M78.0317 13.3179H11.9681C10.465 13.3179 9.24634 14.5364 9.24634 16.0397V24.0984L44.9999 25.6804L80.7535 24.0984V16.0397C80.7535 14.5366 79.5348 13.3179 78.0317 13.3179Z" fill="#465A61"/>
<path d="M80.7535 55.9402L44.9999 57.5222L9.24634 55.9402V24.0984H80.7535V55.9402Z" fill="#ECEAEC"/>
<path d="M9.24634 59.2064L44.9985 60.7884L80.7535 59.2064V55.9402H9.24634V59.2064Z" fill="#DAD8DB"/>
<path d="M71.4127 42.4692V31.9796C71.4127 31.4784 71.0065 31.0724 70.5055 31.0724H19.4917C18.9905 31.0724 18.5845 31.4786 18.5845 31.9796V42.4692L45 44.0512L71.4127 42.4692Z" fill="#FF6B6B"/>
<path d="M19.4917 45.7353H70.5055C71.0065 45.7353 71.4127 45.329 71.4127 44.828V42.4692H18.5845V44.828C18.5845 45.329 18.9907 45.7353 19.4917 45.7353Z" fill="#FF1F3D"/>
<path d="M41.7422 55.9401L30.1634 57.5222L18.5845 55.9401V52.6863C18.5845 52.1853 18.9907 51.7791 19.4917 51.7791H40.8349C41.3358 51.7791 41.7421 52.1853 41.7421 52.6863V55.9401H41.7422Z" fill="#FDBF00"/>
<path d="M71.4156 55.9401L59.8367 57.5222L48.2578 55.9401V52.6863C48.2578 52.1853 48.664 51.7791 49.165 51.7791H70.5082C71.0094 51.7791 71.4154 52.1853 71.4154 52.6863V55.9401H71.4156Z" fill="#FDBF00"/>
<path d="M18.5845 59.2064L30.1634 60.7884L41.7422 59.2064V55.9402H18.5845V59.2064Z" fill="#FF9F00"/>
<path d="M48.2578 59.2064L59.8367 60.7884L71.4156 59.2064V55.9402H48.2578V59.2064Z" fill="#FF9F00"/>
<path d="M15.7407 16.4588C14.586 16.4588 13.6465 17.3984 13.6465 18.5532C13.6465 19.7081 14.586 20.6475 15.7407 20.6475C16.8954 20.6475 17.8352 19.7079 17.8352 18.5532C17.835 17.3984 16.8954 16.4588 15.7407 16.4588Z" fill="#FF6B6B"/>
<path d="M22.4619 16.4588C21.3072 16.4588 20.3677 17.3984 20.3677 18.5532C20.3677 19.7081 21.3072 20.6475 22.4619 20.6475C23.6166 20.6475 24.5564 19.7079 24.5564 18.5532C24.5562 17.3984 23.6166 16.4588 22.4619 16.4588Z" fill="#FDBF00"/>
<path d="M29.1833 16.4588C28.0286 16.4588 27.0889 17.3984 27.0889 18.5532C27.0889 19.7081 28.0284 20.6475 29.1833 20.6475C30.3382 20.6475 31.2777 19.7079 31.2777 18.5532C31.2777 17.3984 30.3382 16.4588 29.1833 16.4588Z" fill="#B3E59F"/>
<path d="M36.4891 73.9512L35.1887 83.8672H54.8112L53.5107 73.9512L45 72.3182L36.4891 73.9512Z" fill="#DAD8DB"/>
<path d="M53.5109 73.9512L53.0827 70.685L45.0001 69.052L36.9175 70.685L36.4893 73.9512H53.5109Z" fill="#C8C5C9"/>
<path d="M5.44359 69.052H84.5566C90 69.052 90 64.9818 90 61.9754V59.2063H0V61.9754C0 64.9818 0.390938 69.052 5.44359 69.052Z" fill="#ECEAEC"/>
<path d="M60.8407 85.2281H29.159C28.4074 85.2281 27.7981 84.6189 27.7981 83.8672C27.7981 83.1156 28.4074 82.5063 29.159 82.5063H60.8407C61.5924 82.5063 62.2016 83.1156 62.2016 83.8672C62.2016 84.6189 61.5924 85.2281 60.8407 85.2281Z" fill="#C8C5C9"/>
<path d="M84.5564 67.4189H5.44359C2.43721 67.4189 0 64.9817 0 61.9753V65.2415C0 68.2479 2.43721 70.6851 5.44359 70.6851H84.5566C87.563 70.6851 90.0002 68.2479 90.0002 65.2415V61.9753C90 64.9817 87.5628 67.4189 84.5564 67.4189Z" fill="#DAD8DB"/>
</g>
<defs>
<clipPath id="clip0">
<rect width="90" height="90" fill="white"/>
</clipPath>
</defs>
</svg>

<svg width="90" height="90" fill="none" xmlns="http://www.w3.org/2000/svg"><g clip-path="url(#clip0)"><path d="M90 55.94V10.216a5.444 5.444 0 00-5.444-5.444H5.444A5.444 5.444 0 000 10.216V55.94l45 1.633 45-1.633z" fill="#BED8FB"/><path d="M0 55.94v3.266l45 1.633 45-1.633V55.94H0z" fill="#A3CAF7"/><path d="M78.032 13.318H11.968a2.722 2.722 0 00-2.722 2.722v8.058L45 25.68l35.754-1.582V16.04a2.722 2.722 0 00-2.722-2.722z" fill="#465A61"/><path d="M80.754 55.94L45 57.522 9.246 55.94V24.098h71.508V55.94z" fill="#ECEAEC"/><path d="M9.246 59.206L45 60.788l35.755-1.582V55.94H9.246v3.266z" fill="#DAD8DB"/><path d="M71.413 42.47V31.98a.907.907 0 00-.907-.908H19.491a.907.907 0 00-.908.908v10.49L45 44.05l26.413-1.582z" fill="#FF6B6B"/><path d="M19.492 45.735h51.013a.907.907 0 00.908-.907v-2.359H18.585v2.359c0 .501.406.907.907.907z" fill="#FF1F3D"/><path d="M41.742 55.94l-11.579 1.582-11.579-1.582v-3.254c0-.5.407-.907.908-.907h21.343c.5 0 .907.406.907.907v3.254zM71.416 55.94l-11.58 1.582-11.578-1.582v-3.254c0-.5.406-.907.907-.907h21.343c.501 0 .907.406.907.907v3.254z" fill="#FDBF00"/><path d="M18.584 59.206l11.58 1.582 11.578-1.582V55.94H18.585v3.266zM48.258 59.206l11.579 1.582 11.579-1.582V55.94H48.258v3.266z" fill="#FF9F00"/><path d="M15.74 16.459c-1.154 0-2.094.94-2.094 2.094 0 1.155.94 2.095 2.095 2.095 1.154 0 2.094-.94 2.094-2.095 0-1.155-.94-2.094-2.094-2.094z" fill="#FF6B6B"/><path d="M22.462 16.459c-1.155 0-2.094.94-2.094 2.094 0 1.155.94 2.095 2.094 2.095 1.155 0 2.094-.94 2.094-2.095 0-1.155-.94-2.094-2.094-2.094z" fill="#FDBF00"/><path d="M29.183 16.459c-1.154 0-2.094.94-2.094 2.094 0 1.155.94 2.095 2.094 2.095 1.155 0 2.095-.94 2.095-2.095 0-1.155-.94-2.094-2.095-2.094z" fill="#B3E59F"/><path d="M36.49 73.951l-1.301 9.916H54.81l-1.3-9.916L45 72.318l-8.51 1.633z" fill="#DAD8DB"/><path d="M53.51 73.951l-.427-3.266L45 69.052l-8.083 1.633-.428 3.266h17.022z" fill="#C8C5C9"/><path d="M5.444 69.052h79.113C90 69.052 90 64.982 90 61.975v-2.769H0v2.77c0 3.006.39 7.076 5.444 7.076z" fill="#ECEAEC"/><path d="M60.84 85.228H29.16a1.36 1.36 0 110-2.722h31.682a1.36 1.36 0 110 2.722z" fill="#C8C5C9"/><path d="M84.556 67.419H5.444A5.444 5.444 0 010 61.975v3.267a5.444 5.444 0 005.444 5.443h79.113A5.444 5.444 0 0090 65.241v-3.266a5.444 5.444 0 01-5.444 5.444z" fill="#DAD8DB"/></g><defs><clipPath id="clip0"><path fill="#fff" d="M0 0h90v90H0z"/></clipPath></defs></svg>
